src/actions/symbolic/caps-lock-symbolic.svg

<svg width="16" height="16" version="1.1" viewBox="0 0 16 16" xmlns="http://www.w3.org/2000/svg">
 <path d="m7.9629 0.5a1.0001 1.0001 0 0 0-0.72266 0.34961l-6 7a1.0001 1.0001 0 0 0-0.24023 0.65039v0.5a1.0001 1.0001 0 0 0 1 1v2a1.0001 1.0001 0 0 0-1 1v2a1.0001 1.0001 0 0 0 1 1h12a1.0001 1.0001 0 0 0 1-1v-2a1.0001 1.0001 0 0 0-1-1v-2a1.0001 1.0001 0 0 0 1-1v-0.5a1.0001 1.0001 0 0 0-0.24023-0.65039l-6-7a1.0001 1.0001 0 0 0-0.79688-0.34961zm0.037109 1 6 7v0.5h-1v4h1v2h-12v-2h1v-4h-1v-0.5l6-7zm-0.56055 5.5-2.1445 6h1.2051l0.38281-0.98828h2.2324l0.38477 0.98828h1.2793l-2.2637-6h-1.0762zm0.56055 1.7148 0.77539 2.2852h-1.5547l0.7793-2.2852z" fill="currentColor"/>
</svg>

<svg xmlns="http://www.w3.org/2000/svg" width="16" height="16" viewBox="0 0 16 16"><path fill="currentColor" d="M7.963.5a1 1 0 0 0-.723.35l-6 7A1 1 0 0 0 1 8.5V9a1 1 0 0 0 1 1v2a1 1 0 0 0-1 1v2a1 1 0 0 0 1 1h12a1 1 0 0 0 1-1v-2a1 1 0 0 0-1-1v-2a1 1 0 0 0 1-1v-.5a1 1 0 0 0-.24-.65l-6-7A1 1 0 0 0 7.963.5M8 1.5l6 7V9h-1v4h1v2H2v-2h1V9H2v-.5zM7.44 7l-2.145 6H6.5l.383-.988h2.232L9.5 13h1.28L8.515 7zM8 8.715 8.775 11H7.221z"/></svg>
